!!!!SEGMENT: pl-wtm--r-2548--005_hertz-michal--jak-wam-sie-podoba-no-5.krn
!!!cenid: 18xx:3112
!!!COM: Hertz, Michał
!!!COM-rismID: pe41023359
!!!CDT: 1844/09/28-~1918
!!!CNT: Polish
!!!GTL: Jak wam się podoba
!!!OTL: No. 5
!!!OMV: 005
!!!PDT:
!!!AGN:
!!!SMS-siglum: PL-Wtm
!!!SMS-shelfmark: R 2548
!!!SMS-shelfwork: 001-005 G
!!!SMS-variant:
!!!SMS-altvar:
!!!NIFC-rismSourceID: 1001082244
!!!NIFC-rismChildID: 1001082244
!!!NIFC-islandoraID:
!!!URL-pdf-islandora:
!!!URL-scan:
!!!ONB-nifc:
!!!OMD: Allegretto.
!!!AIN: 1 piano
!!!key: f
**kern	**kern	**dynam	**kern	**text	**dynam	**kern	**text	**text	**dynam
*part3	*part3	*part3	*part2	*part2	*part2	*part1	*part1	*part1	*part1
*staff4	*staff3	*	*staff2	*staff2	*	*staff1	*staff1	*staff1	*
*Ipiano	*Ipiano	*	*	*	*	*	*	*	*
*ICklav	*ICklav	*	*ICvox	*	*	*ICvox	*	*	*
*IGacmp	*IGacmp	*	*IGcoro	*	*	*IGcoro	*	*	*
*I"[Piano]	*I"[Piano]	*	*I"[Mannerchor]	*	*	*I"[Chor]	*	*	*
*clefF4	*clefG2	*	*	*clefF4	*	*clefG2	*	*	*
*k[b-e-a-d-]	*k[b-e-a-d-]	*	*	*	*	*k[b-e-a-d-]	*	*	*
*f:	*f:	*	*f:	*	*	*f:	*	*	*
*M6/8	*M6/8	*	*	*	*	*M6/8	*	*	*
*all\right	*all\right	*	*all\right	*	*	*all\right	*	*	*
=1	=1	=1	=1	=1	=1	=1	=1	=1	=1
!	!	!	!	!	!	!LO:TX:a:i:t=Lied mit chor.	!	!	!
[4F [4FF\	8r	f	2.ryy	.	.	2.r	.	.	.
.	[4f [4A-/	.	.	.	.	.	.	.	.
(16F]LL 16FF\]	.	.	.	.	.	.	.	.	.
16CJJ 16CC\)	.	.	.	.	.	.	.	.	.
(4D- 4DD-\	8fL] 8A-/]	<	.	.	.	.	.	.	.
.	(>8B- 8F/	.	.	.	.	.	.	.	.
.	.	[	.	.	.	.	.	.	.
8BB- 8BBB-\)	8d-J) 8F/	.	.	.	.	.	.	.	.
=2	=2	=2	=2	=2	=2	=2	=2	=2	=2
[4F [4FF\	8c 8A-/	p	2.ryy	.	.	4r	.	.	.
.	[4f [4A-/	.	.	.	.	.	.	.	.
(16F]LL 16FF\]	.	.	.	.	.	8r	.	.	.
16CJJ 16CC\)	.	.	.	.	.	.	.	.	.
(4D- 4DD-\	8f]L 8A-/]	<	.	.	.	8r	.	.	.
!	!	!	!	!	!	!	!	!	!LO:DY:b:rj
.	(>8B- 8F/	.	.	.	.	8r	.	.	p
*	*	*	*	*	*	*	*v:1)	*v:2)	*
8BB- 8BBB-\)	8d-J) 8F/	[	.	.	.	8d-/	Wer	Wer	.
=3	=3	=3	=3	=3	=3	=3	=3	=3	=3
(4F (4FF\	8c 8A-/	.	2.ryy	.	.	8.f/	un-	Ehr-	.
!	!	!LO:DY:rj	!	!	!	!	!	!	!
.	4f 4c 4A-/	p	.	.	.	.	.	.	.
.	.	.	.	.	.	16f/	-ter	-geiz	.
8C) 8CC/)	.	.	.	.	.	8g/	des	sich	.
4F 4FF\	8r	.	.	.	.	8a-/	Laub-	fern-	.
.	8f 8c 8A-/	.	.	.	.	8f/	-dachs	-hält,	.
8r	8r	.	.	.	.	8f/	Hut	lebt	.
!!LO:PB:g=original
=4	=4	=4	=4	=4	=4	=4	=4	=4	=4
(4F 4FF\	8r	.	2.ryy	.	.	8.b-\	ger-	gern	.
.	4f 4d- 4B-/	.	.	.	.	.	.	.	.
.	.	.	.	.	.	16cc\	-ne	in	.
8BB- 8BBB-/)	.	.	.	.	.	8dd-\	mit	der	.
4F 4FF\	8r	.	.	.	.	8cc\	mir	Son-	.
.	4f 4c 4A-/	.	.	.	.	8a-/	ruht,	-ne,	.
8r	.	.	.	.	.	8a-/	und	sucht	.
=5	=5	=5	=5	=5	=5	=5	=5	=5	=5
4.En 4.EEn\	8r	.	2.ryy	.	.	(8.cc\	stimmt	selbst	.
.	4g 4c 4B-/	.	.	.	.	.	.	.	.
.	.	.	.	.	.	16bn\)	.	.	.
.	.	.	.	.	.	8b-X\	der	was	.
4.F 4.FF\	8r	.	.	.	.	16a-/	Keh-	ihn	.
.	.	.	.	.	.	16g/	-le	er-	.
.	4f 4c 4A-/	.	.	.	.	8f/	Klang	-nährt,	.
.	.	.	.	.	.	16r	.	.	.
.	.	.	.	.	.	16f/	zu	und	.
=6	=6	=6	=6	=6	=6	=6	=6	=6	=6
4.D- 4.DD-/	8r	.	2.ryy	.	.	(4a-/	lust'-	gnug-	.
.	4f 4Bn 4G/	.	.	.	.	.	.	.	.
.	.	.	.	.	.	16g/)	.	.	.
.	.	.	.	.	.	16f/	-ger	-sam	.
!	!LO:TX:b:i:t=rit:rj	!	!	!	!	!	!	!	!
4.C 4.CC;</	8r	.	.	.	.	16.f/	Vo-	es	.
.	.	.	.	.	.	32en/	-gel	ver-	.
.	4en 4c 4G;/	.	.	.	.	8e;/	Sang:	-zehrt:	.
.	.	.	.	.	.	16r	.	.	.
.	.	.	.	.	.	16c/	So	.	.
*kcancel	*kcancel	*	*	*	*	*kcancel	*	*	*
!!LO:LB:g=original
=7	=7	=7	=7	=7	=7	=7	=7	=7	=7
*k[b-]	*k[b-]	*	*	*	*	*k[b-]	*	*	*
*^	*^	*	*	*	*	*	*	*	*
!	!	!	!	!LO:DY:rj	!	!	!	!	!	!	!LO:DY:b:rj
8.rA	[4.FF\	4r	8.ryy	f	2.ryy	.	.	(>4.a/	komm	.	f
.	.	.	.	<	.	.	.	.	.	.	.
16FKL 16C\	.	.	16A</KL	.	.	.	.	.	.	.	.
8AJ 8F\	.	8r	8c</J	.	.	.	.	.	.	.	.
!	!	!	!LO:S:s=1:note:problem=note-level slur	!	!	!	!	!	!	!	!
4A 4F\	8FF\]	8r	(<8d</L	.	.	.	.	8f/)	.	.	.
.	8r	16r	8c</J)	[	.	.	.	8r	.	.	.
.	.	16aKL 16f/	.	<	.	.	.	.	.	.	.
8rF	8r	8ccJ 8a/	8r	.	.	.	.	8c/	ge-	.	.
=8	=8	=8	=8	=8	=8	=8	=8	=8	=8	=8	=8
8.r	[4.FF\	(8aaL (8cc/	8.ryy	[	2.ryy	.	.	4.a/	-schwin-	.	.
.	.	8ffJ) 8a/)	.	.	.	.	.	.	.	.	.
16C\KL	.	.	16A<KL 16F</	.	.	.	.	.	.	.	.
8AJ 8F\	.	8r	8c</J	.	.	.	.	.	.	.	.
!	!	!	!LO:S:s=1:note:problem=note-level slur	!	!	!	!	!	!	!	!
4A 4F\	8FF\]	8r	(<8d</L	.	.	.	.	8f/	-de,	.	.
.	8rEE	16r	8c</J)	.	.	.	.	8r	.	.	.
.	.	16aKL 16f/	.	.	.	.	.	.	.	.	.
8ryy	8rEE	8ccJ 8a/	8r	<	.	.	.	8a/	ach	.	.
*v	*v	*	*	*	*	*	*	*	*	*	*
=9	=9	=9	=9	=9	=9	=9	=9	=9	=9	=9
[>4.D [4.DD\	(8aaL (8ff/	8.r<	.	2.ryy	.	.	[4.ff\	komm`	.	.
.	8ffJ) 8dd/)	.	[	.	.	.	.	.	.	.
.	.	16A<KL 16F</	.	.	.	.	.	.	.	.
.	8r	8d<J 8A< 8F</	.	.	.	.	.	.	.	.
8D]L 8DD\]	4r	8f<L 8d< 8A</	.	.	.	.	(8ff\L]	.	.	.
8E 8EE\	.	8e< 8A< 8G</	.	.	.	.	8ee\J)	.	.	.
8AJ 8F 8FF\	8r	8d</J	.	.	.	.	8dd\	ge-	.	.
=10	=10	=10	=10	=10	=10	=10	=10	=10	=10	=10
*^	*	*	*	*	*	*	*	*	*	*
*2\right	*	*	*	*	*	*	*	*	*	*	*
2.D\	[4.GG\	(4c</	[<4.G</	.	2.ryy	.	.	8cc\	-schwin-	.	.
.	.	.	.	.	.	.	.	8cc\	-de	.	.
.	.	8Bn</)	.	.	.	.	.	8bn\	ge-	.	.
.	(>8GG\L]	(8B-X</L	16G<\]	.	.	.	.	8b-X\	-schwin-	.	.
.	.	.	4ryy	.	.	.	.	.	.	.	.
.	8AA\	8A</	.	.	.	.	.	8a/	-de	.	.
.	8BB-\J)	8G</J)	.	.	.	.	.	8g/	hier	.	.
.	.	.	16ryy	.	.	.	.	.	.	.	.
*v	*v	*	*	*	*	*	*	*	*	*	*
!!LO:LB:g=original
=11	=11	=11	=11	=11	=11	=11	=11	=11	=11	=11
*	*2\right	*	*	*	*	*	*	*	*	*
!	!LO:S:s=1:note:problem=note-level slur	!	!	!	!	!	!	!	!	!
(4.G (4.GG\	(<8.ddL 8.b-/	2.d\	.	2.ryy	.	.	[4.dd\	nagt	.	.
.	16ccK 16a/	.	.	.	.	.	.	.	.	.
.	8b-J 8g/)	.	.	.	.	.	.	.	.	.
4.B-) 4.BB-\)	(8a/	.	.	.	.	.	(8dd\]	.	.	.
.	4g/)	.	.	.	.	.	8g/)	.	.	.
.	.	.	.	.	.	.	8g/	und	.	.
=12	=12	=12	=12	=12	=12	=12	=12	=12	=12	=12
!	!LO:S:s=1:note:problem=note-level slur	!	!	!	!	!	!	!	!	!
(4.E (4.EE\	(<8.b-L 8.g/	2.B-\	.	2.ryy	.	.	[4.b-\	sticht	.	.
.	16aK 16f/	.	.	.	.	.	.	.	.	.
.	8gJ 8e/)	.	.	.	.	.	.	.	.	.
4.G) 4.GG\)	(<8f/	.	.	.	.	.	(<8b-\]	.	.	.
.	4e/)	.	.	.	.	.	8e/)	,	.	.
.	.	.	.	.	.	.	8e/	hier	.	.
=13	=13	=13	=13	=13	=13	=13	=13	=13	=13	=13
(4F 4FF\	(>4d 4A/	4.ryy	.	2.ryy	.	.	4d/	nagt	.	.
8E 8EE\)	8e 8c#X 8A/)	.	.	.	.	.	8e/	und	.	.
[4.D [4.DD\	(8.fL 8.d/	4A\	.	.	.	.	(8.f/L	sticht	.	.
.	16gK 16e/	.	.	.	.	.	16g/Jk)	.	.	.
.	8aJ 8f/)	8d\	.	.	.	.	8a/	kein	.	.
*	*v	*v	*	*	*	*	*	*	*	*
=14	=14	=14	=14	=14	=14	=14	=14	=14	=14
4D] 4DD\]	(4b- 4f (4B-\	.	2.ryy	.	.	4b-\	Feind	.	.
8C 8CC\	8cc:) 8f: 8A:\)	.	.	.	.	8cc\	ihn	.	.
(>4BB- 4BBB-/	8.ddL 8.b- 8.f\	.	.	.	.	(8.dd\L	nicht,	.	.
.	16eeK 16cc 16g\	.	.	.	.	16ee\Jk)	.	.	.
8AA 8AAA/)	8ffJ 8cc 8f\	.	.	.	.	8ff\	als	.	.
!!LO:LB:g=original
=15	=15	=15	=15	=15	=15	=15	=15	=15	=15
.	8qB-/	.	.	.	.	.	.	.	.
*	*	*	*	*	*	*2\right	*	*	*
(8.GGL 8.GGG\	[2.ff [<2.dd [2.f\	.	2.ryy	.	.	[2.ff\	Wet-	.	.
16AAK 16AAA\	.	.	.	.	.	.	.	.	.
8BB- 8BBB-\)	.	.	.	.	.	.	.	.	.
(8C 8CC\	.	.	.	.	.	.	.	.	.
8D 8DD\)	.	.	.	.	.	.	.	.	.
8GJ 8GG'\	.	.	.	.	.	.	.	.	.
=16	=16	=16	=16	=16	=16	=16	=16	=16	=16
[4.B- [4.BB-\	4.ff] 4.dd] 4.f\]	.	2.ryy	.	.	4ff\]	.	.	.
.	.	.	.	.	.	8r	.	.	.
4B-] 4BB-\]	4g 4f 4d/	.	.	.	.	8g/	-ter,	.	.
.	.	.	.	.	.	8r	.	.	.
8B- 8BB-\	8g 8f 8d/	.	.	.	.	8g/	als	.	.
=17	=17	=17	=17	=17	=17	=17	=17	=17	=17
[4.A [4.AA\	(>4.dd [4.f [4.c/	.	2.ryy	.	.	4.dd\	Re-	.	.
4A] 4AA\]	4cc 4f] 4c/])	.	.	.	.	8cc\	-gen	.	.
.	.	.	.	.	.	8r	.	.	.
8A 8D\	8f 8d/	.	.	.	.	8f/	und	.	.
=18	=18	=18	=18	=18	=18	=18	=18	=18	=18
!	!LO:S:s=2:note:problem=note-level slur	!	!	!	!	!	!	!	!
(4.G (4.GG\	(4.b- (4.d (4.B-/	.	2.ryy	.	.	4.b-\	Win-	.	.
4A) 4AA\)	4a) 4c#X) 4A/)	.	.	.	.	8a/	-de,	.	.
.	.	.	.	.	.	8r	.	.	.
8F 8FF\	8d 8A/	.	.	.	.	8d/	als	.	.
!!LO:LB:g=original
=19	=19	=19	=19	=19	=19	=19	=19	=19	=19
*	*	*	*M6/8	*	*	*	*	*	*
*	*	*	*k[b-]	*	*	*	*	*	*
*	*^	*	*	*	*	*	*	*	*
!	!	!	!	!LO:TX:a:i:t=Mannerchor.	!	!	!	!	!	!
2.BB- 2.BBB-/	[2.g [2.f/	8.d\L	.	2.r	.	.	[>2.g/	Wet-	.	.
!	!	!LO:S:s=1:note:problem=note-level slur	!	!	!	!	!	!	!	!
.	.	(>16c#X\K	.	.	.	.	.	.	.	.
.	.	8d\J	.	.	.	.	.	.	.	.
.	.	8e\L	.	.	.	.	.	.	.	.
.	.	8d\	.	.	.	.	.	.	.	.
.	.	8G\J)	.	.	.	.	.	.	.	.
=20	=20	=20	=20	=20	=20	=20	=20	=20	=20	=20
*	*	*	*	*^	*	*	*	*	*	*
(8.BBnL 8.BBBn/	2.g] 2.f/]	[4.d\	.	4rC	2ryy	.	.	4g/]	.	.	.
16AA#XK 16AAA#X/	.	.	.	.	.	.	.	.	.	.	.
8BBJ 8BBB/)	.	.	.	8rC	.	.	.	8g/	-ter,	.	.
(4C 4CC\	.	(>8d\L]	.	8rC	.	.	.	8g/	Re-	.	.
!	!	!	!	!	!	!	!LO:DY:b	!	!	!	!
.	.	8c\	.	8rC	8ryy	.	f	8g/	-gen	.	.
8D 8DD\)	.	8Bn\J)	.	8G/	8F 8D\	als	.	8g/	und	.	.
=21	=21	=21	=21	=21	=21	=21	=21	=21	=21	=21	=21
*^	*	*	*	*	*	*	*	*	*	*	*
!	!	!	!	!	!LO:S:s=2:note:problem=note-level slur	!	!	!	!	!	!	!
[<2.C [<2.CC/	4re	4g/	4.f [4.c\	.	(4.G (<4.F/	[4.C\	Wet-	.	[2.cc\	Win-	.	.
!	!	!	!	!	!LO:TX:Bi:t=cre-scen-do:problem=dynamics with extention lines	!	!	!LO:HP:t=cre-scen-do	!	!	!	!
.	8re	8g 8f/	.	.	.	.	.	<	.	.	.	.
.	8.cL 8.E\	[4.cc/	(8.eL 8.c\]	.	8.c/)	8.E) 8.C\]	.	.	.	.	.	.
.	16BnK 16F\	.	16c\K	.	16Bn 16F/	16C\	-ter,	.	.	.	.	.
.	8B-XJ 8G\	.	8c\J)	.	8B-X 8G/	8C\	als	.	.	.	.	.
=22	=22	=22	=22	=22	=22	=22	=22	=22	=22	=22	=22	=22
*	*	*	*^	*	*	*	*	*	*	*	*	*
!	!LO:S:s=1:note:problem=note-level slur	!	!	!	!	!	!	!	!	!	!	!	!
2.C] 2.CC/]	(8.A/L	4.cc/_	(8.f\L	[<4.c\	.	8.A 8.F/	8.C\	Re-	.	2.cc;\]	.	.	.
.	16F/K	.	16a\K	.	.	16F/	16F\	-gen	.	.	.	.	.
.	8A/J)	.	8f\J)	.	.	8A/	8F 8C\	und	.	.	.	.	.
.	4B-;<\	4cc/]	4e 4c\]	4.ryy	.	4.B- 4.G;/	4.C\	Win	.	.	.	.	.
.	8B-\	8e 8c/	8ryy	.	.	.	.	.	.	.	.	.	.
*v	*v	*	*	*	*	*v	*v	*	*	*	*	*	*
*	*v	*v	*v	*	*	*	*	*	*	*	*
!!LO:PB:g=original
=23	=23	=23	=23	=23	=23	=23	=23	=23	=23
[4F [4FF\	8f 8c 8A/	.	4A 4F\	.	[	4.f/	-de!	.	.
.	[4f [4A [4F/	.	.	.	.	.	.	.	.
(16F]LL 16FF\]	.	.	8r	.	.	.	.	.	.
16CJJ 16CC\)	.	.	.	.	.	.	.	.	.
!	!LO:S:s=2:note:problem=note-level slur	!	!	!	!	!	!	!	!
(4D-X (4DD-X/	8f]L (8A] (8F/]	.	4r	.	.	4r	.	.	.
.	8B-) 8F/)	.	.	.	.	.	.	.	.
8BB-) 8BBB-/)	8d-XJ 8F/	.	8r	.	.	8r	.	.	.
=24	=24	=24	=24	=24	=24	=24	=24	=24	=24
[4F [4FF\	8c 8A/	.	2.r	.	.	2.r	.	.	.
.	[4f [4A [4F/	.	.	.	.	.	.	.	.
(16F]LL 16FF\]	.	.	.	.	.	.	.	.	.
!	!	!	!LO:TX:a:i:t=Jacques.:note=podkreślone	!	!	!	!	!	!
16CJJ 16CC\)	.	.	.	.	.	.	.	.	.
!	!LO:S:s=1:note:problem=note-level slur	!	!	!	!	!	!	!	!
(4D-X (4DD-X\	(>8f]L 8A] 8F/_	.	.	.	.	.	.	.	.
.	8B-) 8F/]	.	.	.	.	.	.	.	.
8BB-) 8BBB-/)	8d-XJ 8F/	.	.	.	.	.	.	.	.
=25	=25	=25	=25	=25	=25	=25	=25	=25	=25
!LO:TX:b:i:t=/das Lied noch einmal.	!	!	!LO:TX:a:i:t=Mehr, mehr, ich bitte dich\nmehr! bis zu den Winter\nKommt trillert eins her,	!	!	!	!	!	!
[4F [4FF\	8c 8A/	.	2.r	.	.	2.r	.	.	.
.	[4f [4c [4A/	.	.	.	.	.	.	.	.
(16F]LL 16FF\]	.	.	.	.	.	.	.	.	.
16DJJ 16DD\)	.	.	.	.	.	.	.	.	.
4C 4CC/	(8f]L 8c] 8A\]	.	.	.	.	.	.	.	.
.	8a 8f 8c\)	.	.	.	.	.	.	.	.
8AA 8AAA/	8ccJ 8a 8f\	.	.	.	.	.	.	.	.
=26	=26	=26	=26	=26	=26	=26	=26	=26	=26
8qFFF/	.	.	.	.	.	.	.	.	.
*tremolo	*	*	*	*	*	*	*	*	*
(32FF\LLL	[4.ff [<4.cc [4.a [4.f\	.	2.ryy	.	.	2.ryy	.	.	.
32F\	.	.	.	.	.	.	.	.	.
32FF\	.	.	.	.	.	.	.	.	.
32F\	.	.	.	.	.	.	.	.	.
32FF\	.	.	.	.	.	.	.	.	.
32F\	.	.	.	.	.	.	.	.	.
32FF\	.	.	.	.	.	.	.	.	.
32F\	.	.	.	.	.	.	.	.	.
32FF\	.	.	.	.	.	.	.	.	.
32F\	.	.	.	.	.	.	.	.	.
32FF\	.	.	.	.	.	.	.	.	.
32F\JJJ)	.	.	.	.	.	.	.	.	.
*Xtremolo	*	*	*	*	*	*	*	*	*
8FF/	8ff] 8cc] 8a] 8f\]	.	.	.	.	.	.	.	.
8r	8r	.	.	.	.	.	.	.	.
8r	8r	.	.	.	.	.	.	.	.
==	==	==	==	==	==	==	==	==	==
*-	*-	*-	*-	*-	*-	*-	*-	*-	*-
!!!system-decoration: <s1,s2>{(s3,s4)}
!!!RDF**kern: > = above
!!!RDF**kern: < = below
!!!ENC: Filip Voros
!!!END: 2021-11-03
!!!ENC: Andrzej Kubiczek
!!!END: 2021-11-05
!!!YEC: Copyright 2022 Narodowy Instytut Fryderyka Chopina (https://polishscores.org)
!!!YEM: License CC-BY-4.0 (https://creativecommons.org/licenses/by/4.0)
